X: 9000
T: Czar Of Munster, The
R: reel
M: 4/4
K: Aminor
A2 (3AAA aAgA|(3AAA fA eAce|cBBA ^GABe|ABcd ecBe|
A2 (3AAA aAAb|AAc'A AaAA|^gaba egeg|baag aAde|
fdAD FA cd|ecGF EA (3ccc|cBBA ^GABe|ABcd e^cde|
fdAD FAcd|ecGF EAcA|cBBA ^GABe|1 ceBc AecB:|2 ceBc A^GAB||
c2cB cdef|fg (3ggg gefe|defg defg|ec (3BBB cGAB|
c2cB cdef|fg (3ggg g^g (3ggg|a2fe defg|eccB cdeA|
fdAD FA cd|ecGF EA (3ccc|cBBA ^GABe|ABcd e^cde|
fdAD FAcd|ecGF EAcA|cBBA ^GABe|1 ceBc A^GAB:|2 ceBc A4||

